Papirus/22x22/apps/hashit.svg

<svg viewBox="0 0 22 22" width="22" xmlns="http://www.w3.org/2000/svg" version="1.1" height="22">
 <path style="fill:#6ea23d" d="m11 1a10 10 0 0 0 -10 10 10 10 0 0 0 10 10 10 10 0 0 0 10 -10 10 10 0 0 0 -10 -10z"/>
 <path style="opacity:.2" d="m1.01075 11.209a10 10 0 0 0 -0.01075 0.291 10 10 0 0 0 10 10 10 10 0 0 0 10 -10 10 10 0 0 0 -0.0105 -0.209 10 10 0 0 1 -9.9895 9.709 10 10 0 0 1 -9.989 -9.791z"/>
 <path style="opacity:.2;fill:#ffffff" d="m11 1a10 10 0 0 0 -10 10 10 10 0 0 0 0.01075 0.209 10 10 0 0 1 9.989 -9.709 10 10 0 0 1 9.9895 9.791 10 10 0 0 0 0.0105 -0.291 10 10 0 0 0 -10 -10z"/>
 <path style="opacity:.2" d="m8.8847656 5.5-0.6933594 3h-2.5761718l-0.4609375 2h2.5761719l-0.4609376 2h-2.8085937l-0.4609375 2h2.8066406l-0.6914062 3h2l0.6914062-3h3.0000004l-0.691407 3h2l0.691407-3h2.542968l0.460938-2h-2.541016l0.460938-2h2.773437l0.460938-2h-2.773438l0.69336-3h-2l-0.69336 3h-3l0.69336-3zm0.8457034 5h3l-0.460938 2h-3z"/>
 <path style="fill:#ffffff" d="m8.8847656 5-2.7695312 12h2l2.7695316-12zm5.0000004 0-2.769532 12h2l2.769532-12z"/>
 <path style="fill:#ffffff" d="m5.6152345 8-0.4609375 2h12.349609l0.460938-2z"/>
 <path style="fill:#ffffff" d="m4.461914 12-0.461914 2h12.349609l0.461914-2z"/>
</svg>

<svg xmlns="http://www.w3.org/2000/svg" width="22" height="22" version="1.1" viewBox="0 0 22 22">
 <path style="fill:#6ea23d" d="M 11,1 A 10,10 0 0 0 1,11 10,10 0 0 0 11,21 10,10 0 0 0 21,11 10,10 0 0 0 11,1 Z"/>
 <path style="opacity:0.2" d="M 1.01075,11.209 A 10,10 0 0 0 1,11.5 10,10 0 0 0 11,21.5 10,10 0 0 0 21,11.5 10,10 0 0 0 20.9895,11.291 10,10 0 0 1 11,21 10,10 0 0 1 1.011,11.209 Z"/>
 <path style="opacity:0.2;fill:#ffffff" d="m 11,1 a 10,10 0 0 0 -10,10 10,10 0 0 0 0.01075,0.209 10,10 0 0 1 9.989,-9.709 10,10 0 0 1 9.9895,9.791 10,10 0 0 0 0.0105,-0.291 10,10 0 0 0 -10,-10 z"/>
 <path style="opacity:0.2" d="m 8.8847656,5.5 -0.6933594,3 H 5.6152344 l -0.4609375,2 h 2.5761719 l -0.4609376,2 H 4.4609375 L 4,14.5 h 2.8066406 l -0.6914062,3 h 2 l 0.6914062,-3 h 3.0000004 l -0.691407,3 h 2 l 0.691407,-3 h 2.542968 l 0.460938,-2 h -2.541016 l 0.460938,-2 h 2.773437 l 0.460938,-2 h -2.773438 l 0.69336,-3 h -2 l -0.69336,3 h -3 l 0.69336,-3 z m 0.8457034,5 h 3 l -0.460938,2 h -3 z"/>
 <path style="fill:#ffffff" d="M 8.8847656,5 6.1152344,17 h 2 L 10.884766,5 Z m 5.0000004,0 -2.769532,12 h 2 L 15.884766,5 Z"/>
 <path style="fill:#ffffff" d="M 5.6152345,8 5.154297,10 h 12.349609 l 0.460938,-2 z"/>
 <path style="fill:#ffffff" d="M 4.461914,12 4,14 h 12.349609 l 0.461914,-2 z"/>
</svg>
